X: 18962
T: Inis Sui
R: jig
M: 6/8
K: Eminor
EGA|:B2c BAd|B3 EGA|B2c BBA|B3 Bde|
B2A GAd|F2E FGd|deB cAG|B3 B/A/Bd|
BcA GED|1 E3 EGA:|2 E3 deg||
|:e2d BAd|B3 B/A/Bd|BcA GAd|B3 deg|gfe2fd|
B2E FGd|deB cAG|B3 B/A/Bd|BcA GED|1 E3 deg:|2 E3 eef||
g2b agf|g2B deg|eE2 FGd|B3 Bef|
g2b afg|eE2 FGA|Bdc BAE|A6|Bdc BAE|e3 EGA||

